!!!ONB: MCCC : IJH0159_02 : Extracted Monophonic Melody
!!!COM: Haydn, Joseph
!!!OPR: Divertimento in E-flat major
!!!OMV: 2
!!!SCT: Hob.II:6
!!!ODT: 1765///
**kern
*thru
*k[b-e-a-]
*E-:
*clefF
*M3/4
2e-
16f
8.d
=1
2e-
16f
8.d
=2
16e-
8.g
16f
8.a-
16d
8.f
=3
16e-
8.g
4f
4r
=4
2f
16a-
8.f
=5
16e-
8.g
16f
8.a-
16f
8.d
=6
16e-
8.B-
4g
4f
=7
2e-
4r
=8
2b-
16g
8.e-
=9
16d
8.g
4f
4r
=10
4ee-
16cc
8.a
16f
8.e-
=11
16d
8.g
4f
4r
=12
2ff
16dd
8.b-
=13
16a
8.ee-
16cc
8.a
16f
8.e-
=14
4d
4b-
4a
=15
2b-
4r
=16
2.e
=17
16f
8.a-
16A-
8.c
16f
8.a-
=18
2.d
=19
16e-
8.g
16G
8.B-
16e-
8.g
=20
4b-
4a-
4g
=21
2f
4r
=22
2e-
16f
8.d
=23
2e-
16f
8.d
=24
16e-
8.g
16f
8.a-
16d
8.f
=25
16e-
8.g
4f
4r
=26
2f
16a-
8.d
=27
16e-
8.g
16f
8.a-
16f
8.d
=28
16e-
8.B-
4g
4f
=29
2e-
4r
=30
2.cc
=31
4b
8g
8f#
8g
8a
=32
2.b-
=33
4a
8f
8e
8f
8g
=34
2.a-
=35
4g
8e-
8f
8g
8a-
=36
2.b-[
=37
2.b-]
=38
4b-
8b-
8cc
8dd
8ee-
=39
8ff
8gg
8aa-
8ff
8ee-
8dd
=40
4ee-
4g
4f
=41
2e-
4r
=42
2.bb-
=43
4bb-
8aa-
8gg
8ff
8ee
=44
2.ff
=45
4ff
8ee-
8dd-
8cc
8b-
=46
4a-
8f
8g
8a-
8b
=47
4cc
4c
4r
=48
4dd-
8cc
8b-
8a-
8g
=49
8f
8g
8a-
8b-
8cc
8dd
=50
4ee-
8dd
8cc
8b
8cc
=51
4g
2r
=52
4r
8cc
8dd
8ee-
8ff
=53
8gg
8ff#
8gg
8ff#
4gg
=54
4r
8b-
8cc
8dd-
8ee
=55
8ff
8ee
8ff
8ee
4ff
=56
4r
8a-
8b-
8cc
8dd
=57
8ee-
8dd
8ee-
8dd
4ee-
=58
4ee-
8dd
8cc
8b
8cc
=59
8b
8a-
8g
8f
8e-
8d
=60
4e-
4c
4B
=61
2c
4r
==
*-
